X: 15398
T: Glassel, The
R: jig
M: 6/8
K: Gmixolydian
|:CDF GG,G,|CDF GDG-|GFE FED|ECC CED|
CDF GG,G,|CDF ~G3|cBA BAG|1 AFF FED:|2 AFF Fze||
|:dBG g2a|gdd ded|eff fbb|bc'c' c'fe|
dBG g2a|gdd ded|eff fgf|1 ecc c2e:|2 ecc c3||

